X: 06025
T: FRONA'S WALTZ
C: Bob McQuillen 24 Dec 81
B: Bob's Note Book 6 #25
%R: waltz
Z: 2021 John Chambers <jc:trillian.mit.edu>
M: 3/4
L: 1/8
K: G
G2 A2 \
| BG DG Bc | B4 A2 | G6 | D2 G2 A2 | BG D2 c2 | B4 A2 | d6 | B2 c2 d2 |\
| e2 e3 g | f4 e2 | dB GB df | e4 d2 | c2 B3 A | E2 F2 G2 | B2 G3 B | A6 ||
| B3 D3 B | A2 G3 F | G6 | D2 G2 A2 | B2 d3 c | B2 c2 d2 | e6  | d4 ef |\
| g2 ed eg | f2 d2 Bd | e2 cd eg | d2 B2 GA | BG D2 c2 | B4 A2 | G6- | G2 |]
[| G2 A2 \
| BG DG Bd | ed B2 G2 | E6 | D6 | BG DG Be | d4 B2 | c6- | c2 A2 B2 |\
| cB cd ed | c2 e2 g2 | g6 | f4 e2 | d2 e3 g | f4 e2 | e2 d3 e | f2 g2 a2 ||
| ba gd gb | a2 b3 a | g6 | d2 B2 A2 | A2 G3 B | d2 g3 f | f6 | e6 |\
| e2 c3 B | A2 B2 c2 | d2 B2 d2 | ge d2 c2 | B6 | A6 | G6- | G2 |]
%%begintext align
%% Whenever April, Pete, and I played at
%% Deacon Brodie's Tavern, Frona Avery treated us like royalty.
%% Sometimes she even joined us with her bass fiddle! Love to
%% you, Frona, and many thanks. (P.S. - Oh, those chicken livers!!)
%%endtext

%%sep 1 1 500

%%sep 1 1 500

